X:14456
T:ROND DE LOUDEAC 16
Z: Yves Belotteau
M:4/4
L:1/8
Q:1/4=140
K:G
|GBB3/2G/2 GFG3/2 z/2 |GBB3/2G/2 GFG3/2 z/2 |GBB3/2G/2 GFG3/2 z/2 |GBB3/
2G/2 GFG3/2 z/2 |
Bcde dcd3/2 z/2 |ABcc BABG|Bcde dcd3/2 z/2 |ABcc BAG3/2|
